packages/foundations/assets/icons/functional/images/navigation/log_out_28.svg

<svg width="28" height="28" viewBox="0 0 28 28" fill="none" xmlns="http://www.w3.org/2000/svg">
<g clip-path="url(#clip0_187_57)">
<path fill-rule="evenodd" clip-rule="evenodd" d="M3.28125 21.875C3.28125 23.3242 4.45707 24.5 5.90625 24.5H11.1562C11.6484 24.5 12.0312 24.1172 12.0312 23.625C12.0312 23.1328 11.6484 22.75 11.1562 22.75H5.90625C5.41406 22.75 5.03125 22.3672 5.03125 21.875V6.125C5.03125 5.63281 5.41406 5.25 5.90625 5.25H11.1562C11.6484 5.25 12.0312 4.86719 12.0312 4.375C12.0312 3.88281 11.6484 3.5 11.1562 3.5H5.90625C4.45707 3.5 3.28125 4.67582 3.28125 6.125V21.875ZM9.40625 14C9.40625 14.4922 9.78906 14.875 10.2812 14.875H21.7383L17.9648 18.6484C17.8008 18.8125 17.7188 19.0312 17.7188 19.25C17.7188 19.7422 18.0742 20.125 18.5938 20.125C18.8125 20.125 19.0585 20.0429 19.2227 19.879L24.4727 14.629C24.6367 14.4648 24.7188 14.2188 24.7188 14C24.7188 13.7812 24.6367 13.5625 24.4727 13.3984L19.1953 8.12105C19.0312 7.95708 18.8125 7.875 18.5938 7.875C18.0742 7.875 17.7188 8.25781 17.7188 8.75C17.7188 8.96875 17.7734 9.2148 17.9648 9.37895L21.7383 13.125H10.2812C9.78906 13.125 9.40625 13.5352 9.40625 14Z" fill="#1A1C1F"/>
</g>
<defs>
<clipPath id="clip0_187_57">
<rect width="28" height="28" fill="white"/>
</clipPath>
</defs>
</svg>

<svg xmlns="http://www.w3.org/2000/svg" width="28" height="28" fill="none"><g clip-path="url(#a)"><path fill="#1A1C1F" fill-rule="evenodd" d="M3.281 21.875A2.626 2.626 0 0 0 5.906 24.5h5.25a.864.864 0 0 0 .875-.875.864.864 0 0 0-.875-.875h-5.25a.864.864 0 0 1-.875-.875V6.125c0-.492.383-.875.875-.875h5.25a.864.864 0 0 0 .875-.875.864.864 0 0 0-.875-.875h-5.25a2.626 2.626 0 0 0-2.625 2.625zM9.406 14c0 .492.383.875.875.875h11.457l-3.773 3.773a.85.85 0 0 0-.246.602c0 .492.355.875.875.875a.91.91 0 0 0 .629-.246l5.25-5.25a.91.91 0 0 0 .246-.629.85.85 0 0 0-.246-.602l-5.278-5.277a.85.85 0 0 0-.601-.246c-.52 0-.875.383-.875.875 0 .219.054.465.246.629l3.773 3.746H10.281a.88.88 0 0 0-.875.875" clip-rule="evenodd"/></g><defs><clipPath id="a"><path fill="#fff" d="M0 0h28v28H0z"/></clipPath></defs></svg>
